X:1
T: Alister McAlister
C:
R:Strathspey
Q:128
K:Gm
M:4/4
L:1/16
|:c2|BG3 G3F DG3 G3A|BG3 G3A B3c d3c|BG3 G3F DG3 G3B|AF3 F3A c4 d2c2|
GG3 G3F DG3 G3A|BG3 G3A B3c d3c|BG3 G3F DG3 G3B|AF3 F3A c4 d2c2|
dg3 g3f dg3 g3f|dg3 g3a b3a g3a|b3g a3^f g3d f3d|c3A F3A c4 d2c2|
dg3 g3f dg3 g3f|dg3 g3a b3a g3a|b3g a3^f g3d f3d|c3A F3A c4 d2:|
